data/styles/clear/style-clear/symbols/alcohol-m.svg

<svg height="24" viewBox="0 0 24 24" width="24"><g fill="none" fill-rule="evenodd"><circle cx="12" cy="12" fill="#fff" opacity=".6" r="12"/><circle cx="12" cy="12" fill="#8c5f93" r="11"/><path d="m10.41 10.2903151-.839-.53302222-.356-3.75729288h-1.43l-.356 3.79556593-.83.50688447c-.33.2016336-.599.6618436-.599 1.0305718v6.0014002c0 .3687281.32.6655776.715.6655776h3.571c.394 0 .714-.2968495.714-.6655776v-6.0014002c0-.3687282-.264-.8345391-.59-1.0427071zm6.161 3.0422403c.789 0 1.429-.5974329 1.429-1.3339556l-.715-3.33442244h-3.572l-.713 3.33442244c0 .7365227.639 1.3339556 1.429 1.3339556h.571v3.4669779l-2 .5339556v.6655776h5v-.6655776l-2-.5339556v-3.4669779z" fill="#fff"/></g></svg>

<svg width="24" height="24" viewBox="0 0 24 24">
  <g fill="none" fill-rule="evenodd">
    <circle cx="12" cy="12" r="12" fill="#FFF" opacity=".6"/>
    <circle cx="12" cy="12" r="11" fill="#8C5F93"/>
    <path fill="#FFF" d="M10.41,10.2903151 L9.571,9.75729288 L9.215,6 L7.785,6 L7.429,9.79556593 L6.599,10.3024504 C6.269,10.504084 6,10.964294 6,11.3330222 L6,17.3344224 C6,17.7031505 6.32,18 6.715,18 L10.286,18 C10.68,18 11,17.7031505 11,17.3344224 L11,11.3330222 C11,10.964294 10.736,10.4984831 10.41,10.2903151 L10.41,10.2903151 Z M16.571,13.3325554 C17.36,13.3325554 18,12.7351225 18,11.9985998 L17.285,8.66417736 L13.713,8.66417736 L13,11.9985998 C13,12.7351225 13.639,13.3325554 14.429,13.3325554 L15,13.3325554 L15,16.7995333 L13,17.3334889 L13,17.9990665 L18,17.9990665 L18,17.3334889 L16,16.7995333 L16,13.3325554 L16.571,13.3325554 L16.571,13.3325554 Z"/>
  </g>
</svg>
